X: 3013
T: LADY DAVIDSON OF CANTRAY
C: John Lowe
Q:"Strathspey."
R: Strathspey.
%R:strathspey
B: James Kerr "Merry Melodies" v.3 p.4 #13
Z: 2016 John Chambers <jc:trillian.mit.edu>
M: C
L: 1/16
K: D
uF2 |\
vD3uFvAud3 A3FDF3 | Ee3e3f gfed ce3 |\
[1 d3BAF3 GABc d3B | A3F GFED CE3 EF3 :|\
[2 dcde fefg a3fdA3 | BcdB AF3 Ad3d2 |]
f2 |\
a3fdA3 Bb3a3f | g3e gfed ce3 e2(fg) |\
a3fdA3 b3afd3 | g3e abag fd3 d3f |
a3fd3A Bb3a3f | g3e gfed ce3 e2(fg) |\
(3d2c2d2 (3B2c2d2 (3e2f2d2 (3c2B2A2 | BcdB AF3 Ad3 d2 |]

%%sep 1 1 500
%%sep 1 1 500

